svg/human/humanBody/hair_kit/hair26.svg

<svg class="hair" width="77.71463012695312" height="112.68017578125" viewBox="336.743 1916.19 77.7146 112.68" xmlns="http://www.w3.org/2000/svg"><path class="hair" id="path2304" style="fill:#3872c1;fill-opacity:1;fill-rule:nonzero;stroke:none" d="m 2758.8,4643.4 c -1.64,4.5 -2.6,9.2 -2.6,14.1 l 0.01,6.9 c -11.04,5 -21.58,10.3 -32.15,14.8 -30.03,12.7 -76.22,8.1 -130.5,80.8 -18.55,24.9 -28.34,56.7 -33.16,88 -13.69,-4.4 -21.72,1 -26.83,10.2 -8,-187.8 8.8,-426.7 8.8,-426.7 0,-26.5 21.47,-48 47.95,-48 h 9.75 c 20.64,117.6 64.71,224.9 158.73,259.9" transform="matrix(0.13333330353101047, 0, 0, -0.13333330353101047, 7.105427357601002e-15, 2613.333251953125)"/><path class="hair" id="path2306" style="fill:#3872c1;fill-opacity:1;fill-rule:nonzero;stroke:none" d="m 3090.09,4838.9 c -5.28,-28.2 -14.87,-56.4 -31.62,-78.9 -54.28,-72.7 -100.47,-68.1 -130.49,-80.8 -10.59,-4.5 -21.15,-9.8 -32.25,-14.8 l -0.02,-6.9 c 0,-4.7 -1.17,-10 -2.71,-14.3 89.9,-40.9 133.92,-141.8 156.81,-259.7 22.02,4.3 41.29,24.7 41.29,48 l 13.19,406.2 c -3.91,-1 -8.62,-0.7 -14.2,1.2" transform="matrix(0.13333330353101047, 0, 0, -0.13333330353101047, 7.105427357601002e-15, 2613.333251953125)"/><path class="hair" id="path2308" style="fill:#3872c1;fill-opacity:1;fill-rule:nonzero;stroke:none" d="m 2586.1,5042.2 c 58.3,-27.5 132.37,-40.7 231.98,-40.7 96.83,0 184.06,17.1 245.91,44.5 22.74,-44.5 27.97,-80.4 27.97,-80.4 0,0 0.37,-2.5 0.92,-6.9 4.16,1.6 9.63,3.1 15.43,3.5 l 0.12,3.3 c 0,17.5 -12.19,65 -28.07,95.5 -24.82,84.7 -110.43,163.5 -252.97,165.6 -135.84,2 -235.93,-61.4 -265.04,-171.8 -2.5,-6.5 -14.63,-48.4 -19.47,-83.4 6.84,-0.5 13.16,-2.5 17.44,-4.3 1.17,6.8 7.21,37.5 25.78,75.1" transform="matrix(0.13333330353101047, 0, 0, -0.13333330353101047, 7.105427357601002e-15, 2613.333251953125)"/></svg>

<svg class="hair" width="77.71463012695312" height="112.68017578125" viewBox="336.743 1916.19 77.7146 112.68" xmlns="http://www.w3.org/2000/svg"><path class="hair" id="path2304" style="fill:#3872c1;fill-opacity:1;fill-rule:nonzero;stroke:none" d="M 2758.8 4643.4 C 2757.16 4647.9 2756.2 4652.6 2756.2 4657.5 L 2756.21 4664.4 C 2745.17 4669.4 2734.63 4674.7 2724.06 4679.2 C 2694.03 4691.9 2647.84 4687.3 2593.56 4760 C 2575.01 4784.9 2565.22 4816.7 2560.4 4848 C 2546.71 4843.6 2538.68 4849 2533.57 4858.2 C 2525.57 4670.4 2542.37 4431.5 2542.37 4431.5 C 2542.37 4405 2539.747 4383.5 2566.227 4383.5 L 2583.389 4472.458 C 2652.214 4508.513 2664.78 4608.4 2758.8 4643.4" transform="matrix(0.13333330353101047, 0, 0, -0.13333330353101047, 7.105427357601002e-15, 2613.333251953125)"/><path class="hair" id="path2306" style="fill:#3872c1;fill-opacity:1;fill-rule:nonzero;stroke:none" d="M 3090.09 4838.9 C 3084.81 4810.7 3075.22 4782.5 3058.47 4760 C 3004.19 4687.3 2958 4691.9 2927.98 4679.2 C 2917.39 4674.7 2906.83 4669.4 2895.73 4664.4 L 2895.71 4657.5 C 2895.71 4652.8 2894.54 4647.5 2893 4643.2 C 2982.9 4602.3 3015.8 4612.597 3038.69 4494.697 C 3086.656 4504.557 3109.633 4387.814 3109.633 4411.114 L 3104.29 4837.7 C 3100.38 4836.7 3095.67 4837 3090.09 4838.9" transform="matrix(0.13333330353101047, 0, 0, -0.13333330353101047, 7.105427357601002e-15, 2613.333251953125)"/><path class="hair" id="path2308" style="fill:#3872c1;fill-opacity:1;fill-rule:nonzero;stroke:none" d="M 2586.1 5042.2 C 2644.4 5014.7 2718.47 5001.5 2818.08 5001.5 C 2914.91 5001.5 3002.14 5018.6 3063.99 5046 C 3086.73 5001.5 3091.96 4965.6 3091.96 4965.6 C 3091.96 4965.6 3092.33 4963.1 3092.88 4958.7 C 3097.04 4960.3 3102.51 4961.8 3108.31 4962.2 L 3108.43 4965.5 C 3108.43 4983 3096.24 5030.5 3080.36 5061 C 3055.54 5145.7 2969.93 5224.5 2827.39 5226.6 C 2691.55 5228.6 2591.46 5165.2 2562.35 5054.8 C 2559.85 5048.3 2547.72 5006.4 2542.88 4971.4 C 2549.72 4970.9 2556.04 4968.9 2560.32 4967.1 C 2561.49 4973.9 2567.53 5004.6 2586.1 5042.2" transform="matrix(0.13333330353101047, 0, 0, -0.13333330353101047, 7.105427357601002e-15, 2613.333251953125)"/></svg>
